img/source-icon/sony-playstation.svg

<svg width="72" height="72" viewBox="0 0 72 72" fill="none" xmlns="http://www.w3.org/2000/svg">
<path d="M28.4998 12.8101C32.6398 13.5901 38.6998 15.4201 41.9998 16.5001C50.2498 19.3501 53.0698 22.8901 53.0698 30.8701C53.0698 38.6701 48.2698 41.6101 42.1498 38.6701V24.1501C42.1498 22.5001 41.8498 20.9101 40.2298 20.4601C38.9998 20.0701 38.2798 21.2101 38.2798 22.8901V59.1901L28.4998 56.0701V12.8101ZM40.1098 52.8601L55.8598 47.2501C57.6598 46.6201 57.9298 45.7201 56.4898 45.2401C55.0198 44.7601 52.4098 44.9101 50.6098 45.5401L40.1098 49.2301V43.3501L40.7398 43.1401C40.7398 43.1401 43.7698 42.0001 47.9998 41.6101C52.2898 41.1301 57.5098 41.6701 61.5898 43.2001C66.2098 44.6701 66.7498 46.8301 65.5798 48.3001C64.3798 49.8001 61.4998 50.8501 61.4998 50.8501L40.1098 58.5001V52.8601ZM10.4998 52.2601C5.78983 51.0001 4.97983 48.1501 7.13983 46.5001C9.14983 45.0001 12.5398 43.9501 12.5398 43.9501L26.5798 39.0001V44.6401L16.4998 48.2701C14.6998 48.9001 14.4298 49.8001 15.8698 50.2801C17.3098 50.7601 19.9498 50.6401 21.7198 49.9801L26.5798 48.2401V53.3101L25.6198 53.4901C20.7598 54.2701 15.5998 54.0001 10.4998 52.2601V52.2601Z" fill="#52525A"/>
</svg>

<svg width="72" height="72" fill="none" xmlns="http://www.w3.org/2000/svg"><path d="M28.5 12.81c4.14.78 10.2 2.61 13.5 3.69 8.25 2.85 11.07 6.39 11.07 14.37 0 7.8-4.8 10.74-10.92 7.8V24.15c0-1.65-.3-3.24-1.92-3.69-1.23-.39-1.95.75-1.95 2.43v36.3l-9.78-3.12V12.81zm11.61 40.05 15.75-5.61c1.8-.63 2.07-1.53.63-2.01-1.47-.48-4.08-.33-5.88.3l-10.5 3.69v-5.88l.63-.21S43.77 42 48 41.61c4.29-.48 9.51.06 13.59 1.59 4.62 1.47 5.16 3.63 3.99 5.1-1.2 1.5-4.08 2.55-4.08 2.55L40.11 58.5v-5.64zm-29.61-.6C5.79 51 4.98 48.15 7.14 46.5c2.01-1.5 5.4-2.55 5.4-2.55L26.58 39v5.64L16.5 48.27c-1.8.63-2.07 1.53-.63 2.01 1.44.48 4.08.36 5.85-.3l4.86-1.74v5.07l-.96.18c-4.86.78-10.02.51-15.12-1.23z" fill="#52525A"/></svg>
